!!!!SEGMENT: pl-kk--kk-i-360--004_anonim--per-merita-sancti-adalberti.krn
!!!cenid: 17xx:1960
!!!COM: Anonim
!!!COM-rismID: pe30004985
!!!CDT:
!!!CNT:
!!!OTL: Per merita Sancti Adalberti
!!!PDT:
!!!AGN: Sacred
!!!SMS-siglum: PL-Kk
!!!SMS-shelfmark: Kk.I.360
!!!SMS-shelfwork: 004 W
!!!SMS-variant:
!!!SMS-altvar:
!!!NIFC-rismSourceID: 1001143308
!!!NIFC-rismChildID: 1001143924
!!!NIFC-islandoraID: pl-kk:5970
!!!URL-pdf-islandora: https://repozytorium.nifc.pl/islandora/object/pl-kk%3A5970/datastream/PDF/view
!!!URL-scan: https://polish.musicsources.pl/pl/lokalizacje/galeria/rekopisy/5975 @EN{Scan on Polish Music Sources Website} @PL{Skany w portalu Dziedzictwo Muzyki Polskiej w otwartym dostępie}
!!!ONB-nifc: UWAGA: utwory w zbiorze: 1. Rorate coeli, 2. Quoniam rex noster, 3. Sanguine proprio, 4. Per merita Sancti Adalberti
!!!AIN: 1 alto 2 bass 3 tenor
!!!key:
**kern	**text	**kern	**text	**text	**kern	**text	**text	**kern	**text	**text	**kern	**text	**text	**kern	**text	**text
*part6	*part6	*part5	*part5	*part5	*part4	*part4	*part4	*part3	*part3	*part3	*part2	*part2	*part2	*part1	*part1	*part1
*staff6	*staff6	*staff5	*staff5	*staff5	*staff4	*staff4	*staff4	*staff3	*staff3	*staff3	*staff2	*staff2	*staff2	*staff1	*staff1	*staff1
*Ibass	*	*Ibass	*	*	*Itenor	*	*	*Itenor	*	*	*Itenor	*	*	*Ialto	*	*
*I"[Basso 2]	*	*I"[Basso 1]	*	*	*I"[Tenore 3]	*	*	*I"[Tenore 2]	*	*	*I"[Tenore 1]	*	*	*I"[Alto]	*	*
*I'[B 2]	*	*I'[B 1]	*	*	*I'[T 3]	*	*	*I'[T 2]	*	*	*I'[T 1]	*	*	*I'[A]	*	*
*clefF4	*	*clefF4	*	*	*clefC4	*	*	*clefC4	*	*	*clefC4	*	*	*clefC3	*	*
*k[b-]	*	*k[b-]	*	*	*k[b-]	*	*	*k[b-]	*	*	*k[b-]	*	*	*k[b-]	*	*
*F:	*	*F:	*	*	*F:	*	*	*F:	*	*	*F:	*	*	*F:	*	*
*M2/1	*	*M2/1	*	*	*M2/1	*	*	*M2/1	*	*	*M2/1	*	*	*M2/1	*	*
=1-	=1-	=1-	=1-	=1-	=1-	=1-	=1-	=1-	=1-	=1-	=1-	=1-	=1-	=1-	=1-	=1-
!LO:TX:t=P:problem=adnotacja "12" olowkiem	!	!LO:TX:a:t=12	!	!	!	!	!	!	!	!	!	!	!	!	!	!
!	!	!	!	!	!	!	!	!	!	!	!LO:TX:t=P:problem=kreska pseudotaktowa	!	!	!LO:TX:t=P:problem=kreska pseudotaktowa	!	!
00r	.	00r	.	.	00r	.	.	00r	.	.	1F/	Per	.	0r	.	.
.	.	.	.	.	.	.	.	.	.	.	2G/	me-	.	.	.	.
.	.	.	.	.	.	.	.	.	.	.	1B-\	.	.	.	.	.
=2-	=2-	=2-	=2-	=2-	=2-	=2-	=2-	=2-	=2-	=2-	=2-	=2-	=2-	=2-	=2-	=2-
.	.	.	.	.	.	.	.	.	.	.	.	.	.	1c\	Per	.
!	!	!	!	!	!	!	!	!	!	!	!LO:TX:t=P:problem=kreska pseudotaktowa	!	!	!	!	!
.	.	.	.	.	.	.	.	.	.	.	2A/	.	.	.	.	.
*	*	*	*	*	*	*	*	*	*	*	*2\right	*	*	*2\right	*	*
!	!	!	!	!	!	!	!	!	!	!	!LO:TX:t=P:problem=all\right&colon; global	!	!	!LO:TX:t=P:problem=all\right&colon; global	!	!
.	.	.	.	.	.	.	.	.	.	.	2B-\	.	.	2d\	.	.
.	.	.	.	.	.	.	.	.	.	.	2d\	.	.	1f\	me-	.
=3-	=3-	=3-	=3-	=3-	=3-	=3-	=3-	=3-	=3-	=3-	=3-	=3-	=3-	=3-	=3-	=3-
!	!	!	!	!	!LO:TX:t=P:problem=kreska pseudotaktowa	!	!	!LO:TX:t=P:problem=kreska pseudotaktowa	!	!	!	!	!	!	!	!
00r	.	00r	.	.	0r	.	.	1C/	Per	.	2.c\	.	.	.	.	.
!	!	!	!	!	!	!	!	!	!	!	!	!	!	!LO:TX:t=P:problem=kreska pseudotaktowa	!	!
.	.	.	.	.	.	.	.	.	.	.	.	.	.	2e\	.	.
!	!	!	!	!	!	!	!	!	!	!	!LO:TX:t=P:problem=kreska pseudotaktowa	!	!	!	!	!
.	.	.	.	.	.	.	.	.	.	.	4B-\	-ri-	.	.	.	.
!	!	!	!	!	!	!	!	!	!	!	!LO:TX:t=P:problem=kreska pseudotaktowa	!	!	!	!	!
.	.	.	.	.	.	.	.	2D/	me-	.	1A\	-ta	.	2.f\	.	.
.	.	.	.	.	.	.	.	1F/	-ri-	.	.	.	.	.	.	.
!	!	!	!	!	!	!	!	!	!	!	!	!	!	!LO:TX:t=P:problem=kreska pseudotaktowa	!	!
.	.	.	.	.	.	.	.	.	.	.	.	.	.	4e\	-ri-	.
=4-	=4-	=4-	=4-	=4-	=4-	=4-	=4-	=4-	=4-	=4-	=4-	=4-	=4-	=4-	=4-	=4-
.	.	.	.	.	1G/	Per	.	.	.	.	2r	.	.	2d\	-ta	.
!	!	!	!	!	!	!	!	!LO:TX:t=P:problem=kreska pseudotaktowa	!	!	!	!	!	!LO:TX:t=P:problem=kreska pseudotaktowa	!	!
.	.	.	.	.	.	.	.	2E/	.	.	1c\	San-	.	2g\	S(an)-	.
.	.	.	.	.	2A/	me-	.	2F/	.	.	.	.	.	2f\	-cti	.
!	!	!	!	!	!	!	!	!	!	!	!LO:TX:t=P:problem=kreska pseudotaktowa	!	!	!	!	!
.	.	.	.	.	1c\	-ri-	.	2A/	-ta	.	2c\	-cti	.	4e\	A-	.
!	!	!	!	!	!	!	!	!	!	!	!	!	!	!LO:TX:t=P:problem=kreska pseudotaktowa	!	!
.	.	.	.	.	.	.	.	.	.	.	.	.	.	4f\	-dal-	.
=5-	=5-	=5-	=5-	=5-	=5-	=5-	=5-	=5-	=5-	=5-	=5-	=5-	=5-	=5-	=5-	=5-
!LO:TX:t=P:problem=kreska pseudotaktowa	!	!LO:TX:t=P:problem=kreska pseudotaktowa	!	!	!	!	!	!LO:TX:t=P:problem=kreska pseudotaktowa	!	!	!	!	!	!	!	!
00r	.	00r	.	.	.	.	.	1G/	S(an)-	.	2d\	a-	.	2g\	-ber-	.
*	*	*	*	*	*2\right	*	*	*	*	*	*	*	*	*	*	*
!	!	!	!	!	!LO:TX:t=P:problem=all\right&colon; global	!	!	!	!	!	!	!	!	!	!	!
!	!	!	!	!	!LO:TX:t=P:problem=kreska pseudotaktowa	!	!	!	!	!	!LO:TX:t=P:problem=kreska pseudotaktowa	!	!	!	!	!
.	.	.	.	.	2B-\	-ta	.	.	.	.	2d\	-dal-	.	2g\	-ti	.
*	*	*	*	*	*	*	*	*2\right	*	*	*	*	*	*	*ij	*
!	!	!	!	!	!	!	!	!LO:TX:t=P:problem=kreska pseudotaktowa	!	!	!	!	!	!	!	!
.	.	.	.	.	4c\	.	.	2C/	-cti	.	4e#X\	-ber-	.	1g\	A-	.
!	!	!	!	!	!LO:TX:t=P:♭above:problem	!	!	!	!	!	!	!	!	!	!	!
.	.	.	.	.	4B-X\	.	.	.	.	.	4d\	.	.	.	.	.
.	.	.	.	.	4A/	.	.	1c\	S(an)-	.	4c\	.	.	.	.	.
*	*	*	*	*	*	*	*	*	*	*	*custos:A	*	*	*	*	*
!	!	!	!	!	!LO:TX:t=P:problem=kreska pseudotaktowa	!	!	!	!	!	!LO:TX:t=P:problem=kreska pseudotaktowa	!	!	!	!	!
.	.	.	.	.	4G/	.	.	.	.	.	4B-\	.	.	.	.	.
=6-	=6-	=6-	=6-	=6-	=6-	=6-	=6-	=6-	=6-	=6-	=6-	=6-	=6-	=6-	=6-	=6-
*	*	*	*	*	*lig	*	*	*	*	*	*	*	*	*	*	*
!	!	!	!	!	!	!	!	!	!	!	!	!	!	!LO:TX:t=P:problem=kreska pseudotaktowa	!	!
.	.	.	.	.	1F/	San-	.	.	.	.	2A/	.	.	1a\	-dal-	.
!	!	!	!	!	!	!	!	!LO:TX:t=P:problem=all\right&colon; global	!	!	!	!	!	!	!	!
.	.	.	.	.	.	.	.	2f\	-cti	.	1c\	.	.	.	.	.
!	!	!	!	!	!LO:TX:t=P:problem=kreska pseudotaktowa	!	!	!	!	!	!	!	!	!	!	!
.	.	.	.	.	1G/	.	.	2d\	A-	.	.	.	.	1.g\	-ber-	.
!	!	!	!	!	!	!	!	!	!	!	!LO:TX:t=P:problem=kreska pseudotaktowa	!	!	!	!	!
.	.	.	.	.	.	.	.	2d\	-dal-	.	2B-\	.	.	.	.	.
*	*	*	*	*	*Xlig	*	*	*	*	*	*	*	*	*	*	*
=7-	=7-	=7-	=7-	=7-	=7-	=7-	=7-	=7-	=7-	=7-	=7-	=7-	=7-	=7-	=7-	=7-
*	*	*	*	*	*	*	*	*lig	*	*	*	*	*	*	*	*
!LO:TX:t=P:problem=kreska pseudotaktowa	!	!LO:TX:t=P:problem=kreska pseudotaktowa	!	!	!	!	!	!	!	!	!	!	!	!	!	!
1C/	Per	1C/	Per	.	2C,/	-cti	.	1e\	-ber-	.	1c\	-ti	.	.	.	.
!	!	!	!	!	!LO:TX:t=P:problem=kreska pseudotaktowa	!	!	!	!	!	!	!	!	!	!	!
.	.	.	.	.	2c\	A-	.	.	.	.	.	.	.	2g\	.	.
*lig	*	*lig	*	*	*	*	*	*col	*	*	*	*	*	*	*	*
!	!	!	!	!	!LO:TX:t=P:♭above:problem	!	!	!	!	!	!	!	!	!LO:TX:t=P:problem=kreska pseudotaktowa	!	!
1D\	Me-	1D\	Me-	.	2B-X\	-dal-	.	2.d\	.	.	2.F/	San-	.	1f\	-ti	.
!	!	!	!	!	!LO:TX:t=P:problem=kreska pseudotaktowa	!	!	!	!	!	!	!	!	!	!	!
.	.	.	.	.	2A/	.	.	.	.	.	.	.	.	.	.	.
*	*	*	*	*	*	*	*	*Xlig	*	*	*	*	*	*	*Xij	*
!	!	!	!	!	!	!	!	!	!	!	!LO:TX:t=P:problem=kreska pseudotaktowa	!	!	!	!	!
.	.	.	.	.	.	.	.	8c\L	.	.	4G/	.	.	.	.	.
!	!	!	!	!	!	!	!	!LO:TX:t=P:problem=kreska pseudotaktowa	!	!	!	!	!	!	!	!
.	.	.	.	.	.	.	.	8B-\J	.	.	.	.	.	.	.	.
*	*	*	*	*	*	*	*	*Xcol	*	*	*	*	*	*	*	*
=8-	=8-	=8-	=8-	=8-	=8-	=8-	=8-	=8-	=8-	=8-	=8-	=8-	=8-	=8-	=8-	=8-
1F\	.	1F\	.	.	(4F/	.	.	4A/	.	.	4A\	.	.	2r	.	.
.	.	.	.	.	4G/	.	.	4G/	.	.	4B-\	.	.	.	.	.
!	!	!	!	!	!	!	!	!	!	!	!	!	!	!LO:TX:t=P:problem=kreska pseudotaktowa	!	!
.	.	.	.	.	4A/)	.	.	4F/	.	.	1c\	-cti	.	2c/	per	.
!	!	!	!	!	!LO:TX:t=P:problem=kreska pseudotaktowa	!	!	!	!	!	!	!	!	!	!	!
*Xlig	*	*Xlig	*	*	*	*	*	*	*	*	*	*	*	*	*	*
.	.	.	.	.	4B-\	.	.	4G/	.	.	.	.	.	.	.	.
1F\	-ri-	1F\	-ri-	.	2c\	.	.	2A/	.	.	.	.	.	1.f\	me-	.
*	*	*	*	*	*	*	*	*custos:c	*	*	*	*	*	*	*	*
!	!	!	!	!	!	!	!	!	!	!	!LO:TX:t=P:problem=kreska pseudotaktowa	!	!	!	!	!
!	!	!	!	!	!	!	!	!LO:TX:t=P:problem=kreska pseudotaktowa	!	!	!	!	!	!	!	!
.	.	.	.	.	2d\	.	.	2B-\	.	.	2B-\	.	.	.	.	.
=9-	=9-	=9-	=9-	=9-	=9-	=9-	=9-	=9-	=9-	=9-	=9-	=9-	=9-	=9-	=9-	=9-
!LO:TX:t=P:problem=kreska pseudotaktowa	!	!LO:TX:t=P:problem=kreska pseudotaktowa	!	!	!	!	!	!LO:TX:t=P:problem=kreska pseudotaktowa	!	!	!	!	!	!	!	!
1F\,<	-ta	1F\	-ta	.	2c\	.	.	1c\	-ti	.	2A/	a-	.	.	.	.
*	*	*	*	*	*custos:g	*	*	*	*	*	*	*	*	*	*	*
!	!	!	!	!	!LO:TX:t=P:problem=kreska pseudotaktowa	!	!	!	!	!	!	!	!	!	!	!
.	.	.	.	.	2A/	.	.	.	.	.	2F/	-dal-	.	2f\	-ri-	.
*lig	*	*lig	*	*	*lig	*	*	*	*	*	*	*	*	*	*	*
1E\	San-	1E\	San-	.	1G/	-ber-	.	2r	.	.	1c\	-ber-	.	2g\	-ta	.
!	!	!	!	!	!	!	!	!	!	!	!	!	!	!LO:TX:t=P:problem=kreska pseudotaktowa	!	!
.	.	.	.	.	.	.	.	1c\	S(an)-	.	.	.	.	2g\	S(an)-	.
=10-	=10-	=10-	=10-	=10-	=10-	=10-	=10-	=10-	=10-	=10-	=10-	=10-	=10-	=10-	=10-	=10-
!	!	!	!	!	!	!	!	!	!	!	!LO:TX:t=P:problem=kreska pseudotaktowa	!	!	!LO:TX:t=P:problem=kreska pseudotaktowa	!	!
1F\	.	1F\	.	.	1A\	.	.	.	.	.	1c\	-ti	.	1f\	-cti	.
!	!	!	!	!	!	!	!	!LO:TX:t=P:problem=kreska pseudotaktowa	!	!	!	!	!	!	!	!
.	.	.	.	.	.	.	.	2A/	-cti	.	.	.	.	.	.	.
*Xlig	*	*Xlig	*	*	*Xlig	*	*	*	*	*	*	*	*	*	*	*
!	!	!	!	!	!LO:TX:t=P:problem=kreska pseudotaktowa	!	!	!	!	!	!	!	!	!	!	!
1G\	.	1G\	.	.	1B-\	-ti	.	4d\	A-	.	1r	.	.	2r	.	.
.	.	.	.	.	.	.	.	4c\	.	.	.	.	.	.	.	.
!	!	!	!	!	!	!	!	!	!	!	!	!	!	!LO:TX:t=P:problem=kreska pseudotaktowa	!	!
.	.	.	.	.	.	.	.	4B-\	.	.	.	.	.	2d\	S(an)-	.
!	!	!	!	!	!	!	!	!LO:TX:t=P:problem=kreska pseudotaktowa	!	!	!	!	!	!	!	!
.	.	.	.	.	.	.	.	4A\	.	.	.	.	.	.	.	.
=11-	=11-	=11-	=11-	=11-	=11-	=11-	=11-	=11-	=11-	=11-	=11-	=11-	=11-	=11-	=11-	=11-
*	*	*	*	*	*	*	*	*	*	*	*	*ij	*	*	*	*
!LO:TX:t=P:problem=kreska pseudotaktowa	!	!LO:TX:t=P:problem=kreska pseudotaktowa	!	!	!	!	!	!	!	!	!LO:TX:t=P:problem=kreska pseudotaktowa	!	!	!	!	!
1E\,<	-cti	1E\	-cti	.	2r	.	.	2G/	-dal-	.	1c\	San-	.	2e\	-cti	.
!	!	!	!	!	!	!	!	!	!	!	!	!	!	!LO:TX:t=P:problem=kreska pseudotaktowa	!	!
.	.	.	.	.	2G/	San-	.	2.c\	.	.	.	.	.	2g\	A-	.
1F\	A-	1F\	A-	Ven	2A/	-cti	.	.	.	.	2A/	-cti	.	2.f\	-dal-	.
.	.	.	.	.	.	.	.	4B-\	-ber-	.	.	.	.	.	.	.
!	!	!	!	!	!LO:TX:t=P:problem=kreska pseudotaktowa	!	!	!	!	!	!	!	!	!	!	!
.	.	.	.	.	2F/	A-	.	4A/	.	.	2.c\	A-	.	.	.	.
!	!	!	!	!	!	!	!	!LO:TX:t=P:problem=kreska pseudotaktowa	!	!	!	!	!	!	!	!
.	.	.	.	.	.	.	.	4G/	.	.	.	.	.	4g\	.	.
=12-	=12-	=12-	=12-	=12-	=12-	=12-	=12-	=12-	=12-	=12-	=12-	=12-	=12-	=12-	=12-	=12-
*lig	*	*lig	*	*	*	*	*	*	*	*	*	*	*	*	*	*
1F\	-dal-	1F\	-dal-	-ce-	2F/	-dal-	.	4F/	.	.	.	.	.	2a\	-ber-	.
.	.	.	.	.	.	.	.	4G/	.	.	4B-\	.	.	.	.	.
!	!	!	!	!	!	!	!	!	!	!	!	!	!	!LO:TX:t=P:problem=kreska pseudotaktowa	!	!
.	.	.	.	.	2D/	-ber-	.	4A/	.	.	2.A/	-dal-	.	2f\	-ti	.
!	!	!	!	!	!	!	!	!LO:TX:t=P:problem=kreska pseudotaktowa	!	!	!	!	!	!	!	!
.	.	.	.	.	.	.	.	4B-\	.	.	.	.	.	.	.	.
!	!	!	!	!	!LO:TX:t=P:problem=kreska pseudotaktowa	!	!	!	!	!	!	!	!	!	!	!
1E\	.	1E\	.	.	1C/	-ti	.	4c\	.	.	.	.	.	2g\	A-	.
.	.	.	.	.	.	.	.	4d\	.	.	4G/	.	.	.	.	.
.	.	.	.	.	.	.	.	4e\	.	.	1G/	-ber-	.	2e\	-dal-	.
.	.	.	.	.	.	.	.	4c\	.	.	.	.	.	.	.	.
*Xlig	*	*Xlig	*	*	*	*	*	*	*	*	*	*	*	*	*	*
=13-	=13-	=13-	=13-	=13-	=13-	=13-	=13-	=13-	=13-	=13-	=13-	=13-	=13-	=13-	=13-	=13-
*lig	*	*lig	*	*	*	*	*	*	*	*	*	*	*	*	*	*
1D\	-ber-	1D\	-ber-	-sla-	2r	.	.	1d\	-ti	.	.	.	.	1.f\	-ber-	.
!	!	!	!	!	!LO:TX:t=P:problem=kreska pseudotaktowa	!	!	!	!	!	!	!	!	!	!	!
.	.	.	.	.	2F/	A-	.	.	.	.	2F/	.	.	.	.	.
*custos:F	*	*	*	*	*	*	*	*	*	*	*	*	*	*	*	*
!	!	!	!	!	!	!	!	!	!	!	!LO:TX:t=P:problem=kreska pseudotaktowa	!	!	!	!	!
1E\	.	1E\	.	.	2.c\	-dal-	.	2r	.	.	1G/	-ti	.	.	.	.
!	!	!	!	!	!	!	!	!	!	!	!	!	!	!LO:TX:t=P:problem=kreska pseudotaktowa	!	!
.	.	.	.	.	.	.	.	2c\	S(an)-	.	.	.	.	2e\	.	.
!	!	!	!	!	!LO:TX:t=P:problem=kreska pseudotaktowa	!	!	!	!	!	!	!	!	!	!	!
.	.	.	.	.	4B-\	.	.	.	.	.	.	.	.	.	.	.
*Xlig	*	*Xlig	*	*	*	*	*	*	*	*	*	*Xij	*	*	*	*
=14-	=14-	=14-	=14-	=14-	=14-	=14-	=14-	=14-	=14-	=14-	=14-	=14-	=14-	=14-	=14-	=14-
*lig	*	*lig	*	*	*	*	*	*	*	*	*	*	*	*	*	*
!	!	!	!	!	!	!	!	!	!	!	!LO:TX:t=P:problem=kreska pseudotaktowa	!	!	!	!	!
1F\	.	1F\	.	.	1.A\	-ber-	.	2f\	-cti	.	1r	.	.	4d\	.	.
.	.	.	.	.	.	.	.	.	.	.	.	.	.	4c\	.	.
!	!	!	!	!	!	!	!	!LO:TX:t=P:problem=kreska pseudotaktowa	!	!	!	!	!	!	!	!
.	.	.	.	.	.	.	.	2d\	A-	.	.	.	.	2.d\	.	.
1E\	.	1E\	.	.	.	.	.	1e\	-dal-	.	1C/	a-	.	.	.	.
.	.	.	.	.	.	.	.	.	.	.	.	.	.	4c/	.	.
!	!	!	!	!	!LO:TX:t=P:problem=kreska pseudotaktowa	!	!	!	!	!	!	!	!	!	!	!
.	.	.	.	.	2G,/	-ti	.	.	.	.	.	.	.	1c\	.	.
*Xlig	*	*Xlig	*	*	*	*	*	*	*	*	*	*	*	*	*	*
=15-	=15-	=15-	=15-	=15-	=15-	=15-	=15-	=15-	=15-	=15-	=15-	=15-	=15-	=15-	=15-	=15-
*lig	*	*lig	*	*	*	*	*	*	*	*	*	*	*	*	*	*
1D\	-ti,	1D\	-ti	-i	1F/	Chri-	.	1.f\	.	.	2F/	-dal-	.	.	.	.
*	*	*	*	*	*	*	*	*	*	*	*custos:e	*	*	*custos:c	*	*
!	!	!	!	!	!	!	!	!	!	!	!LO:TX:t=P:problem=kreska pseudotaktowa	!	!	!LO:TX:t=P:problem=kreska pseudotaktowa	!	!
.	.	.	.	.	.	.	.	.	.	.	2D/	-ber-	.	2B-/	.	.
!LO:TX:t=P:problem=kreska pseudotaktowa	!	!LO:TX:t=P:problem=kreska pseudotaktowa	!	!	!LO:TX:t=P:problem=kreska pseudotaktowa	!	!	!	!	!	!LO:TX:t=P:problem=kreska pseudotaktowa	!	!	!	!	!
1C/	.	1C/	.	.	1G/	.	.	.	.	.	1E/	-ti	.	2c/,	-ti	.
*Xlig	*	*Xlig	*	*	*	*	*	*	*	*	*	*	*	*	*	*
!	!	!	!	!	!	!	!	!LO:TX:t=P:problem=kreska pseudotaktowa	!	!	!	!	!	!LO:TX:t=P:problem=kreska pseudotaktowa	!	!
.	.	.	.	.	.	.	.	2e\	-ber-	.	.	.	.	2c/	Chri-	.
=16-	=16-	=16-	=16-	=16-	=16-	=16-	=16-	=16-	=16-	=16-	=16-	=16-	=16-	=16-	=16-	=16-
*	*	*	*	*	*	*	*	*	*	*	*	*	*	*lig	*	*
00r	.	00r	.	.	2A/	-ste	.	4d\	.	.	2F/	Chri-	.	1d\	-ste	.
.	.	.	.	.	.	.	.	4c\	.	.	.	.	.	.	.	.
*	*	*	*	*	*	*	*	*	*	*	*lig	*	*	*	*	*
.	.	.	.	.	1B-\,<	nos	.	4B-\	.	.	1G/	-ſte	.	.	.	.
!	!	!	!	!	!	!	!	!LO:TX:t=P:problem=kreska pseudotaktowa	!	!	!	!	!	!	!	!
.	.	.	.	.	.	.	.	4A/	.	.	.	.	.	.	.	.
!	!	!	!	!	!	!	!	!	!	!	!	!	!	!LO:TX:t=P:problem=kreska pseudotaktowa	!	!
.	.	.	.	.	.	.	.	2G/	.	.	.	.	.	1e\	.	.
.	.	.	.	.	1c\,<	e-	.	2c\	.	.	1A\	.	.	.	.	.
*	*	*	*	*	*	*	*	*	*	*	*Xlig	*	*	*Xlig	*	*
=17-	=17-	=17-	=17-	=17-	=17-	=17-	=17-	=17-	=17-	=17-	=17-	=17-	=17-	=17-	=17-	=17-
.	.	.	.	.	.	.	.	2F/	-ti	.	.	.	.	2.f\	nos	.
!	!	!	!	!	!LO:TX:t=P:problem=kreska pseudotaktowa	!	!	!LO:TX:t=P:problem=kreska pseudotaktowa	!	!	!LO:TX:t=P:problem=kreska pseudotaktowa	!	!	!	!	!
.	.	.	.	.	2d\	-xau-	.	2r	.	.	2B-\	.	.	.	.	.
.	.	.	.	.	.	.	.	.	.	.	.	.	.	4e\	.	.
.	.	.	.	.	2c\	-di	.	1F/	Chri-	.	2c\	nos	.	4f\	.	.
.	.	.	.	.	.	.	.	.	.	.	.	.	.	4g\	.	.
!	!	!	!	!	!LO:TX:t=P:problem=kreska pseudotaktowa	!	!	!	!	!	!	!	!	!LO:TX:t=P:problem=kreska pseudotaktowa	!	!
.	.	.	.	.	2f\	.	.	.	.	.	2A/	.	.	2a\	.	.
=18-	=18-	=18-	=18-	=18-	=18-	=18-	=18-	=18-	=18-	=18-	=18-	=18-	=18-	=18-	=18-	=18-
*	*	*	*	*	*	*	*	*lig	*	*	*	*	*	*	*	*
!LO:TX:t=P:problem=kreska pseudotaktowa	!	!LO:TX:t=P:problem=kreska pseudotaktowa	!	!	!	!	!	!	!	!	!	!	!	!	!	!
00r	.	00r	.	.	2e\	Chr(i-	.	1G/	-ste	.	1B-\	e-	.	1g\	e-	.
.	.	.	.	.	1d\	-st)e	.	.	.	.	.	.	.	.	.	.
.	.	.	.	.	.	.	.	1A\	.	.	2A/	-xau-	.	2f\	.	.
!	!	!	!	!	!LO:TX:t=P:problem=kreska pseudotaktowa	!	!	!	!	!	!LO:TX:t=P:problem=kreska pseudotaktowa	!	!	!LO:TX:t=P:problem=kreska pseudotaktowa	!	!
.	.	.	.	.	2c\	nos	.	.	.	.	2F/	-di	.	2e\	.	.
*	*	*	*	*	*	*	*	*Xlig	*	*	*	*	*	*	*	*
=19-	=19-	=19-	=19-	=19-	=19-	=19-	=19-	=19-	=19-	=19-	=19-	=19-	=19-	=19-	=19-	=19-
.	.	.	.	.	2.d\	e-	.	2.B-\	nos	.	1r	.	.	4d\	.	.
.	.	.	.	.	.	.	.	.	.	.	.	.	.	4e\	.	.
.	.	.	.	.	.	.	.	.	.	.	.	.	.	4f\	.	.
!	!	!	!	!	!	!	!	!LO:TX:t=P:problem=kreska pseudotaktowa	!	!	!	!	!	!	!	!
.	.	.	.	.	4c\	-xau-	.	4A/	.	.	.	.	.	2d\	.	.
.	.	.	.	.	2B-\	.	.	2G/	e-	.	2r	.	.	.	.	.
.	.	.	.	.	.	.	.	.	.	.	.	.	.	4e\	.	.
!	!	!	!	!	!LO:TX:t=P:problem=kreska pseudotaktowa	!	!	!	!	!	!	!	!	!	!	!
.	.	.	.	.	2A/	.	.	2F/	-xau-	.	1c\	Chri-	.	1f\	-xau-	.
=20-	=20-	=20-	=20-	=20-	=20-	=20-	=20-	=20-	=20-	=20-	=20-	=20-	=20-	=20-	=20-	=20-
*lig	*	*lig	*	*	*	*	*	*	*	*	*	*	*	*	*	*
1C/	Chri-	1C/	Chri-	.	1G/	.	.	1C/	-di	.	.	.	.	.	.	.
!	!	!	!	!	!	!	!	!	!	!	!LO:TX:t=P:problem=kreska pseudotaktowa	!	!	!	!	!
.	.	.	.	.	.	.	.	.	.	.	2c\	-ſte	.	2e\	.	.
*	*	*	*	*	*	*	*	*	*ij	*	*	*	*	*	*	*
!	!	!	!	!	!LO:TX:t=P:problem=kreska pseudotaktowa	!	!	!LO:TX:t=P:problem=kreska pseudotaktowa	!	!	!	!	!	!LO:TX:t=P:problem=kreska pseudotaktowa	!	!
1D\	.	1D\	.	.	1A\	-di	.	1F/	Chri-	.	2A/	.	.	1f\	-di	.
*Xlig	*	*Xlig	*	*	*	*	*	*	*	*	*	*	*	*	*	*
!	!	!	!	!	!	!	!	!	!	!	!LO:TX:t=P:problem=kreska pseudotaktowa	!	!	!	!	!
.	.	.	.	.	.	.	.	.	.	.	2d\	nos	.	.	.	.
=21-	=21-	=21-	=21-	=21-	=21-	=21-	=21-	=21-	=21-	=21-	=21-	=21-	=21-	=21-	=21-	=21-
*lig	*	*lig	*	*	*	*	*	*lig	*	*	*	*	*	*	*	*
1En\	.	1E\	.	.	0r	.	.	1G/	.	.	2.c\	e-	.	1r	.	.
.	.	.	.	.	.	.	.	.	.	.	4B-\	-xau-	.	.	.	.
!	!	!	!	!	!	!	!	!	!	!	!	!	!	!LO:TX:t=P:problem=kreska pseudotaktowa	!	!
1F\	.	1F\	.	.	.	.	.	1.A\	.	.	4A/	.	.	1c\	Chr(i-	.
*Xlig	*	*Xlig	*	*	*	*	*	*	*	*	*	*	*	*	*	*
.	.	.	.	.	.	.	.	.	.	.	4G/	.	.	.	.	.
.	.	.	.	.	.	.	.	.	.	.	4F/	.	.	.	.	.
!	!	!	!	!	!	!	!	!	!	!	!LO:TX:t=P:problem=kreska pseudotaktowa	!	!	!	!	!
.	.	.	.	.	.	.	.	.	.	.	4E/	.	.	.	.	.
=22-	=22-	=22-	=22-	=22-	=22-	=22-	=22-	=22-	=22-	=22-	=22-	=22-	=22-	=22-	=22-	=22-
*	*	*	*	*	*	*	*	*	*	*	*lig	*	*	*lig	*	*
!LO:TX:t=P:problem=kreska pseudotaktowa	!	!LO:TX:t=P:problem=kreska pseudotaktowa	!	!	!	!	!	!	!	!	!	!	!	!	!	!
1D\	-ste	1D\	-ſte	.	2r	.	.	.	.	.	1F/	.	.	1d\	-st)e	.
*	*	*	*	*	*	*	*	*Xlig	*	*	*	*	*	*	*	*
!	!	!	!	!	!LO:TX:t=P:problem=kreska pseudotaktowa	!	!	!LO:TX:t=P:problem=kreska pseudotaktowa	!	!	!	!	!	!	!	!
.	.	.	.	.	2F/	Chr(i-	.	2B-\	.	.	.	.	.	.	.	.
*	*	*	*	*	*	*	*	*	*	*	*	*	*	*custos:f	*	*
!	!	!	!	!	!	!	!	!	!	!	!	!	!	!LO:TX:t=P:problem=kreska pseudotaktowa	!	!
*lig	*	*lig	*	*	*	*	*	*	*	*	*	*	*	*	*	*
1C/	nos	1C/	nos	.	2G/	.	.	1c\	-ste	.	1E/	.	.	1e\	.	.
.	.	.	.	.	4A/	-st)e	.	.	.	.	.	.	.	.	.	.
!	!	!	!	!	!LO:TX:t=P:problem=kreska pseudotaktowa	!	!	!	!	!	!	!	!	!	!	!
.	.	.	.	.	4G/	.	.	.	.	.	.	.	.	.	.	.
*	*	*	*	*	*	*	*	*	*	*	*Xlig	*	*	*Xlig	*	*
=23-	=23-	=23-	=23-	=23-	=23-	=23-	=23-	=23-	=23-	=23-	=23-	=23-	=23-	=23-	=23-	=23-
!LO:TX:t=P:♭above:problem	!	!LO:TX:t=P:♭above:problem	!	!	!	!	!	!	!	!	!LO:TX:t=P:problem=kreska pseudotaktowa	!	!	!	!	!
1BB-X/	.	1BB-X/	.	.	2.B-\	nos	.	1.d\	nos	.	1D/	-di	.	1.f\	nos	.
*Xlig	*	*Xlig	*	*	*	*	*	*	*	*	*	*	*	*	*	*
.	.	.	.	.	8A/L	ex-	.	.	.	.	.	.	.	.	.	.
!	!	!	!	!	!LO:TX:t=P:problem=kreska pseudotaktowa	!	!	!	!	!	!	!	!	!	!	!
.	.	.	.	.	8G/J	.	.	.	.	.	.	.	.	.	.	.
!LO:TX:t=P:problem=kreska pseudotaktowa	!	!LO:TX:t=P:problem=kreska pseudotaktowa	!	!	!	!	!	!	!	!	!	!	!	!	!	!
1AA/	.	1AA/	.	.	1A\	-au-	.	.	.	.	1r	.	.	.	.	.
!	!	!	!	!	!	!	!	!LO:TX:t=P:problem=kreska pseudotaktowa	!	!	!	!	!	!LO:TX:t=P::problem=kreska pseudotaktowa&colon;między nutą a kropką	!	!
.	.	.	.	.	.	.	.	2c\	e-	.	.	.	.	2.e\	e-	.
=24-	=24-	=24-	=24-	=24-	=24-	=24-	=24-	=24-	=24-	=24-	=24-	=24-	=24-	=24-	=24-	=24-
!	!	!	!	!	!LO:TX:t=P:problem=kreska pseudotaktowa	!	!	!	!	!	!LO:TX:t=P:problem=kreska pseudotaktowa	!	!	!	!	!
1GG/	e-	1GG/	e-	.	1D/	-di	.	1B-\	-xau-	.	1G/	Chri-	.	.	.	.
.	.	.	.	.	.	.	.	.	.	.	.	.	.	4d\	.	.
.	.	.	.	.	.	.	.	.	.	.	.	.	.	1d\	.	.
!	!	!	!	!	!	!	!	!LO:TX:t=P:problem=kreska pseudotaktowa	!	!	!LO:TX:t=P:problem=kreska pseudotaktowa	!	!	!	!	!
1AA/	-xau-	1AA/	-xau-	.	0r	.	.	1A\,<	-di	.	1E/	-ſte	.	.	.	.
.	.	.	.	.	.	.	.	.	.	.	.	.	.	4c#X/	.	.
!	!	!	!	!	!	!	!	!	!	!	!	!	!	!LO:TX:t=P:problem=kreska pseudotaktowa	!	!
!	!	!	!	!	!	!	!	!	!	!	!	!	!	!LO:SIC:v:s=4Bn	!	!
.	.	.	.	.	.	.	.	.	.	.	.	.	.	4B-/	.	.
=25-	=25-	=25-	=25-	=25-	=25-	=25-	=25-	=25-	=25-	=25-	=25-	=25-	=25-	=25-	=25-	=25-
*	*	*	*	*	*	*	*	*	*Xij	*	*	*	*	*	*	*
!LO:TX:t=P:problem=kreska pseudotaktowa	!	!LO:TX:t=P:problem=kreska pseudotaktowa	!	!	!	!	!	!	!	!	!	!	!	!	!	!
1AA/,<	-di	1AA/	-di	.	.	.	.	2r	.	.	1.E/	nos	.	2c#X/	.	.
.	.	.	.	.	.	.	.	1A\	Chr(i-	.	.	.	.	2c#/	-xau-	.
!	!	!	!	!	!	!	!	!	!	!	!	!	!	!LO:TX:t=P:problem=kreska pseudotaktowa	!	!
00r	.	00r	.	.	2r	.	.	.	.	.	.	.	.	1d\	-di	.
!	!	!	!	!	!	!	!	!LO:TX:t=P:problem=kreska pseudotaktowa	!	!	!LO:TX:t=P:problem=kreska pseudotaktowa	!	!	!	!	!
.	.	.	.	.	1A\	Chr(i-	.	2A\	-st)e	.	2E/	e-	.	.	.	.
=26-	=26-	=26-	=26-	=26-	=26-	=26-	=26-	=26-	=26-	=26-	=26-	=26-	=26-	=26-	=26-	=26-
.	.	.	.	.	.	.	.	1.d\	.	.	0D/	-xau-	.	2r	.	.
*	*	*	*	*	*custos:a	*	*	*	*	*	*	*	*	*	*	*
!	!	!	!	!	!LO:TX:t=P:problem=kreska pseudotaktowa	!	!	!	!	!	!	!	!	!	!	!
.	.	.	.	.	2A/	-st)e	.	.	.	.	.	.	.	1f\	Chr(i-	.
.	.	.	.	.	1.A\	nos	.	.	.	.	.	.	.	.	.	.
.	.	.	.	.	.	.	.	4c\	nos	.	.	.	.	4e\	.	.
!	!	!	!	!	!	!	!	!LO:TX:t=P:problem=kreska pseudotaktowa	!	!	!	!	!	!LO:TX:t=P:problem=kreska pseudotaktowa	!	!
.	.	.	.	.	.	.	.	4B-\	.	.	.	.	.	4d\	.	.
=27-	=27-	=27-	=27-	=27-	=27-	=27-	=27-	=27-	=27-	=27-	=27-	=27-	=27-	=27-	=27-	=27-
!	!	!	!	!	!	!	!	!	!	!	!LO:TX:t=P:problem=kreska pseudotaktowa	!	!	!	!	!
.	.	.	.	.	.	.	.	2c#X\	.	.	0A\	-di	.	2e\	-st)e	.
!	!	!	!	!	!LO:TX:t=P:problem=kreska pseudotaktowa	!	!	!	!	!	!	!	!	!	!	!
.	.	.	.	.	2D/	.	.	1d\	.	.	.	.	.	2f\	Chr(i-	.
0r	.	0r	.	.	1F/	e-	.	.	.	.	.	.	.	2.f\	-st)e	.
!	!	!	!	!	!	!	!	!LO:TX:t=P:problem=kreska pseudotaktowa	!	!	!	!	!	!	!	!
.	.	.	.	.	.	.	.	2c#\	.	.	.	.	.	.	.	.
!	!	!	!	!	!	!	!	!	!	!	!	!	!	!LO:TX:t=P:problem=kreska pseudotaktowa	!	!
.	.	.	.	.	.	.	.	.	.	.	.	.	.	4e\	.	.
=28-	=28-	=28-	=28-	=28-	=28-	=28-	=28-	=28-	=28-	=28-	=28-	=28-	=28-	=28-	=28-	=28-
.	.	.	.	.	2G/	.	.	2B-\	.	.	2r	.	.	2d\	nos	.
*	*	*	*	*	*	*	*	*	*	*	*	*ij	*	*	*	*
!	!	!	!	!	!LO:TX:t=P:problem=kreska pseudotaktowa	!	!	!	!	!	!	!	!	!	!	!
.	.	.	.	.	2E/	.	.	1cny\	ex-	.	2c\	Chri-	.	2g\	ex-	.
!LO:TX:t=P:problem=kreska pseudotaktowa	!	!LO:TX:t=P:problem=kreska pseudotaktowa	!	!	!	!	!	!	!	!	!	!	!	!	!	!
1r	.	1r	.	.	2F/	-xau-	.	.	.	.	2f\	-ste	.	2a\	-au-	.
!	!	!	!	!	!	!	!	!LO:TX:t=P:problem=kreska pseudotaktowa	!	!	!LO:TX:t=P:problem=kreska pseudotaktowa	!	!	!	!	!
.	.	.	.	.	2G/	-di	.	2B-\	-au-	.	2d\	nos	.	2g\	.	.
=29-	=29-	=29-	=29-	=29-	=29-	=29-	=29-	=29-	=29-	=29-	=29-	=29-	=29-	=29-	=29-	=29-
!	!	!	!	!	!LO:TX:t=P:problem=kreska pseudotaktowa	!	!	!LO:TX:t=P:problem=kreska pseudotaktowa	!	!	!	!	!	!LO:TX:t=P:problem=kreska pseudotaktowa	!	!
1C/	at-	1C/	at-	.	1C/	.	.	1c\	-di	.	1.eny\	e-	.	0g\	-di	.
!LO:TX:t=P:problem=kreska pseudotaktowa	!	!LO:TX:t=P:problem=kreska pseudotaktowa	!	!	!	!	!	!	!	!	!	!	!	!	!	!
1GG/	-que	1GG/	-q(ue)	.	0G/	at-	.	2r	.	.	.	.	.	.	.	.
.	.	.	.	.	.	.	.	1c\	at-	.	2d\	-xau-	.	.	.	.
=30-	=30-	=30-	=30-	=30-	=30-	=30-	=30-	=30-	=30-	=30-	=30-	=30-	=30-	=30-	=30-	=30-
*lig	*	*lig	*	*	*	*	*	*	*	*	*	*	*	*	*	*
1C/	E-	1C/	e-	.	.	.	.	.	.	.	2c\	-di	.	2r	.	.
*	*	*	*	*	*	*	*	*	*	*	*	*Xij	*	*	*	*
!	!	!	!	!	!	!	!	!LO:TX:t=P:problem=kreska pseudotaktowa	!	!	!LO:TX:t=P:problem=kreska pseudotaktowa	!	!	!	!	!
.	.	.	.	.	.	.	.	2G/	-q(ue)	.	2e\	at-	.	1g\	at-	.
1D\	.	1D\	.	.	2D/	-q(ue)	.	2B-\	e-	.	2d\	-q(ue)	.	.	.	.
*Xlig	*	*Xlig	*	*	*	*	*	*	*	*	*	*	*	*	*	*
!	!	!	!	!	!	!	!	!	!	!	!	!	!	!LO:TX:t=P:problem=kreska pseudotaktowa	!	!
.	.	.	.	.	1d\	e-	.	1A\	-ius	.	2f\	e-	.	2d\	-q(ue)	.
=31-	=31-	=31-	=31-	=31-	=31-	=31-	=31-	=31-	=31-	=31-	=31-	=31-	=31-	=31-	=31-	=31-
1En\	.	1E\	-ius	.	.	.	.	.	.	.	2e\	-i(us)	.	0g\	e-	.
.	.	.	.	.	4c\	.	.	4G/	.	.	1e\	pre-	.	.	.	.
!	!	!	!	!	!LO:TX:t=P:problem=kreska pseudotaktowa	!	!	!LO:TX:t=P:problem=kreska pseudotaktowa	!	!	!	!	!	!	!	!
.	.	.	.	.	4B-\	.	.	4F/	.	.	.	.	.	.	.	.
!LO:TX:t=P:problem=kreska pseudotaktowa	!	!LO:TX:t=P:problem=kreska pseudotaktowa	!	!	!	!	!	!	!	!	!	!	!	!	!	!
1E\	-ius	1E\	pre-	.	2c\	.	.	2.G/	pre-	.	.	.	.	.	.	.
!	!	!	!	!	!	!	!	!	!	!	!LO:TX:t=P:problem=kreska pseudotaktowa	!	!	!	!	!
.	.	.	.	.	2c\	-ius	.	.	.	.	2e\	-ci-	.	.	.	.
!	!	!	!	!	!	!	!	!LO:TX:t=P:problem=kreska pseudotaktowa	!	!	!	!	!	!	!	!
.	.	.	.	.	.	.	.	4A/	.	.	.	.	.	.	.	.
=32-	=32-	=32-	=32-	=32-	=32-	=32-	=32-	=32-	=32-	=32-	=32-	=32-	=32-	=32-	=32-	=32-
!	!	!	!	!	!	!	!	!	!	!	!LO:TX:t=P:problem=kreska pseudotaktowa	!	!	!LO:TX:t=P:problem=kreska pseudotaktowa	!	!
*lig	*	*lig	*	*	*	*	*	*	*	*	*	*	*	*	*	*
1G\	pre-	1G\	.	.	2d\	pre-	.	4B-\	.	.	1d\	-b(us)	.	1g\	-ius	.
.	.	.	.	.	.	.	.	4c\	.	.	.	.	.	.	.	.
!	!	!	!	!	!LO:TX:t=P:problem=kreska pseudotaktowa	!	!	!	!	!	!	!	!	!	!	!
.	.	.	.	.	2B-\	-ci-	.	4d\	.	.	.	.	.	.	.	.
!	!	!	!	!	!	!	!	!LO:TX:t=P:problem=kreska pseudotaktowa	!	!	!	!	!	!	!	!
.	.	.	.	.	.	.	.	4e\	.	.	.	.	.	.	.	.
!	!	!	!	!	!LO:TX:t=P:problem=kreska pseudotaktowa	!	!	!	!	!	!	!	!	!	!	!
1F\	.	1F\	.	.	1A\	-bus	.	2f\	.	.	2r	.	.	2r	.	.
*Xlig	*	*Xlig	*	*	*	*	*	*	*	*	*	*	*	*	*	*
.	.	.	.	.	.	.	.	1d\	-ci-	.	1A\	e-	.	2d\	pre-	.
=33-	=33-	=33-	=33-	=33-	=33-	=33-	=33-	=33-	=33-	=33-	=33-	=33-	=33-	=33-	=33-	=33-
!	!	!LO:TX:t=P:problem=kreska pseudotaktowa	!	!	!	!	!	!	!	!	!	!	!	!	!	!
1E\	.	1E\	.	.	2r	.	.	.	.	.	.	.	.	4e\	.	.
.	.	.	.	.	.	.	.	.	.	.	.	.	.	4f\	.	.
!	!	!	!	!	!LO:TX:t=P:problem=kreska pseudotaktowa	!	!	!LO:TX:t=P:problem=kreska pseudotaktowa	!	!	!LO:TX:t=P:problem=kreska pseudotaktowa	!	!	!	!	!
.	.	.	.	.	2G/	at-	.	2c\	.	.	2G/	-i(us)	.	4g\	.	.
!	!	!	!	!	!	!	!	!	!	!	!	!	!	!LO:TX:t=P:problem=kreska pseudotaktowa	!	!
.	.	.	.	.	.	.	.	.	.	.	.	.	.	4e\	.	.
!	!	!	!	!	!	!	!	!LO:TX:t=P:problem=kreska pseudotaktowa	!	!	!	!	!	!	!	!
1D\	-ci-	1D\	-ci-	.	2A\	-q(ue)	.	1d\	-bus	.	2F/	pre-	.	1f\	.	.
!	!	!	!	!	!LO:TX:t=P:problem=kreska pseudotaktowa	!	!	!	!	!	!LO:TX:t=P:problem=kreska pseudotaktowa	!	!	!	!	!
.	.	.	.	.	2B-\	e-	.	.	.	.	2F/	-ci-	.	.	.	.
=34-	=34-	=34-	=34-	=34-	=34-	=34-	=34-	=34-	=34-	=34-	=34-	=34-	=34-	=34-	=34-	=34-
!LO:TX:t=P:problem=kreska pseudotaktowa	!	!LO:TX:t=P:problem=kreska pseudotaktowa	!	!	!	!	!	!	!	!	!	!	!	!	!	!
1E\	-bus	1E\	-b(us)	.	1G/	-ius	.	2r	.	.	1.C/	-b(us)	.	2.e\	-ci-	.
.	.	.	.	.	.	.	.	2.e\	pre-	.	.	.	.	.	.	.
.	.	.	.	.	.	.	.	.	.	.	.	.	.	4f\	.	.
!	!	!	!	!	!	!	!	!	!	!	!	!	!	!LO:TX:t=P:problem=kreska pseudotaktowa	!	!
00r	.	00r	.	.	2.c\	pre-	.	.	.	.	.	.	.	1g\	-bus	.
!	!	!	!	!	!	!	!	!LO:TX:t=P:problem=kreska pseudotaktowa	!	!	!	!	!	!	!	!
.	.	.	.	.	.	.	.	4d\	.	.	.	.	.	.	.	.
.	.	.	.	.	.	.	.	2c\	-ci-	.	1c\	.	.	.	.	.
!	!	!	!	!	!LO:TX:t=P:problem=kreska pseudotaktowa	!	!	!	!	!	!	!	!	!	!	!
.	.	.	.	.	4B-\	.	.	.	.	.	.	.	.	.	.	.
=35-	=35-	=35-	=35-	=35-	=35-	=35-	=35-	=35-	=35-	=35-	=35-	=35-	=35-	=35-	=35-	=35-
.	.	.	.	.	2A/	.	.	2B-\	.	.	.	.	.	2r	.	.
!	!	!	!	!	!LO:TX:t=P:problem=kreska pseudotaktowa	!	!	!LO:TX:t=P:problem=kreska pseudotaktowa	!	!	!LO:TX:t=P::problem=kreska pseudotaktowa&colon;między nutą a kropką	!	!	!	!	!
.	.	.	.	.	2G/	.	.	1A\	-bus	.	2.d\	e-	.	2g\	e-	.
*	*	*	*	*	*	*	*	*	*	*	*	*	*	*lig	*	*
.	.	.	.	.	1F/	.	.	.	.	.	.	.	.	1a\	-ius	.
.	.	.	.	.	.	.	.	.	.	.	4e\	.	.	.	.	.
*	*	*	*	*	*	*	*	*	*	*	*custos:e	*	*	*	*	*
!	!	!	!	!	!	!	!	!	!	!	!LO:TX:t=P:problem=kreska pseudotaktowa	!	!	!	!	!
.	.	.	.	.	.	.	.	1r	.	.	2f\	-ius	.	.	.	.
=36-	=36-	=36-	=36-	=36-	=36-	=36-	=36-	=36-	=36-	=36-	=36-	=36-	=36-	=36-	=36-	=36-
*	*	*	*	*	*lig	*	*	*	*	*	*	*	*	*	*	*
!	!	!	!	!	!	!	!	!	!	!	!	!	!	!LO:TX:t=P:problem=kreska pseudotaktowa	!	!
.	.	.	.	.	1G/	-ci-	.	.	.	.	2e\	pre-	.	1g\	.	.
.	.	.	.	.	.	.	.	2r	.	.	1d\	.	.	.	.	.
*	*	*	*	*	*col	*	*	*lig	*	*	*	*	*	*Xlig	*	*
*custos:A	*	*	*	*	*	*	*	*	*	*	*	*	*	*	*	*
!LO:TX:t=P:problem=kreska pseudotaktowa	!	!LO:TX:t=P:problem=kreska pseudotaktowa	!	!	!	!	!	!	!	!	!	!	!	!	!	!
0r	.	0r	.	.	2.A\	.	.	1A\	no-	.	.	.	.	2f\	pre-	.
!	!	!	!	!	!	!	!	!	!	!	!LO:TX:t=P:problem=♯above	!	!	!LO:TX:t=P:problem=kreska pseudotaktowa	!	!
.	.	.	.	.	.	.	.	.	.	.	2c#X\	-ci-	.	2e\	.	.
*	*	*	*	*	*Xlig	*	*	*	*	*	*	*	*	*	*	*
.	.	.	.	.	4A/	-bus	.	.	.	.	.	.	.	.	.	.
*	*	*	*	*	*Xcol	*	*	*	*	*	*	*	*	*	*	*
=37-	=37-	=37-	=37-	=37-	=37-	=37-	=37-	=37-	=37-	=37-	=37-	=37-	=37-	=37-	=37-	=37-
!	!	!	!	!	!LO:TX:t=P:problem=kreska pseudotaktowa	!	!	!	!	!	!LO:TX:t=P:problem=kreska pseudotaktowa	!	!	!	!	!
.	.	.	.	.	1D/	.	.	1d\	.	.	1d\	-b(us)	.	2f#X\	-ci-	.
.	.	.	.	.	.	.	.	.	.	.	.	.	.	1f#\	-bus	.
*lig	*	*lig	*	*	*	*	*	*Xlig	*	*	*	*	*	*	*	*
!	!	!	!	!	!	!	!	!LO:TX:t=P:problem=kreska pseudotaktowa	!	!	!	!	!	!	!	!
1A\	No-	1A\	no-	.	2r	.	.	2c\	.	.	00r	.	.	.	.	.
!	!	!	!	!	!LO:TX:t=P:problem=kreska pseudotaktowa	!	!	!	!	!	!	!	!	!	!LO:MO:mod=no-	!
.	.	.	.	.	2A/	.	.	2d\	-bis	.	.	.	.	4e\	nos	.
*	*	*	*	*	*	*	*	*	*	*	*	*	*	*custos:f	*	*
!	!	!	!	!	!	!	!	!	!	!	!	!	!	!LO:TX:t=P:problem=kreska pseudotaktowa	!	!
.	.	.	.	.	.	.	.	.	.	.	.	.	.	4f#\	.	.
=38-	=38-	=38-	=38-	=38-	=38-	=38-	=38-	=38-	=38-	=38-	=38-	=38-	=38-	=38-	=38-	=38-
!	!	!	!	!	!	!	!	!LO:TX:t=P:problem=kreska pseudotaktowa	!	!	!	!	!	!	!	!
!	!	!	!	!	!	!	!	!LO:N:acc=#	!	!	!	!	!	!	!	!
1G\	.	1G\	.	.	2.B-\	no-	.	2BnX\	suc-	.	.	.	.	2g\	.	.
*	*	*Xlig	*	*	*	*	*	*	*	*	*	*	*	*	*	*
.	.	.	.	.	.	.	.	2c\	-cu-	.	.	.	.	1e\	.	.
.	.	.	.	.	4G/	.	.	.	.	.	.	.	.	.	.	.
!	!	!	!	!	!	!	!	!LO:TX:t=P:problem=kreska pseudotaktowa	!	!	!	!	!	!	!	!
1F\	.	1F\	.	.	2.A/	-bis	.	2A/	-re	.	.	.	.	.	.	.
.	.	.	.	.	.	.	.	1r	.	.	.	.	.	2d\	.	.
!	!	!	!	!	!LO:TX:t=P:problem=kreska pseudotaktowa	!	!	!	!	!	!	!	!	!	!	!
.	.	.	.	.	4F/,<	.	.	.	.	.	.	.	.	.	.	.
=39-	=39-	=39-	=39-	=39-	=39-	=39-	=39-	=39-	=39-	=39-	=39-	=39-	=39-	=39-	=39-	=39-
1E\	.	1E\	.	.	1.G/	Suc-	.	.	.	.	.	.	.	0e\	.	.
*Xlig	*	*	*	*	*	*	*	*	*	*	*	*	*	*	*	*
.	.	.	.	.	.	.	.	2r	.	.	.	.	.	.	.	.
!LO:TX:t=P:problem=kreska pseudotaktowa	!	!LO:TX:t=P:problem=kreska pseudotaktowa	!	!	!	!	!	!	!	!	!	!	!	!	!	!
1E\	-bis	1E\	-bis	.	.	.	.	1f\	no-	.	2r	.	.	.	.	.
!	!	!	!	!	!LO:TX:t=P:problem=kreska pseudotaktowa	!	!	!	!	!	!LO:TX:t=P:problem=kreska pseudotaktowa	!	!	!	!	!
.	.	.	.	.	2E/	-cu-	.	.	.	.	2cny\	no-	.	.	.	.
=40-	=40-	=40-	=40-	=40-	=40-	=40-	=40-	=40-	=40-	=40-	=40-	=40-	=40-	=40-	=40-	=40-
!	!	!	!	!	!	!	!	!LO:TX:t=P:problem=kreska pseudotaktowa	!	!	!	!	!	!LO:TX:t=P:problem=kreska pseudotaktowa	!	!
00r	.	00r	.	.	2D/	-re	.	2e\	-bis	.	2d\	-bis	.	1f#X\	bis	.
.	.	.	.	.	1d\	no-	.	2d\	.	.	2B-\	Suc-	.	.	.	.
.	.	.	.	.	.	.	.	1c\	ſuc-	.	2c\	-cu-	.	2r	.	.
!	!	!	!	!	!LO:TX:t=P:problem=kreska pseudotaktowa	!	!	!	!	!	!LO:TX:t=P:problem=kreska pseudotaktowa	!	!	!LO:TX:t=P:problem=kreska pseudotaktowa	!	!
.	.	.	.	.	2c\	-bis	.	.	.	.	2A/	-re	.	2a\	no-	.
=41-	=41-	=41-	=41-	=41-	=41-	=41-	=41-	=41-	=41-	=41-	=41-	=41-	=41-	=41-	=41-	=41-
!	!	!	!	!	!	!	!	!LO:TX:t=P:problem=kreska pseudotaktowa	!	!	!	!	!	!	!	!
.	.	.	.	.	2B-\	.	.	2B-y\	.	.	2A\	.	.	2fny\	-bis	.
!	!	!	!	!	!	!	!	!LO:TX:t=P:problem=kreska pseudotaktowa	!	!	!	!	!	!	!	!
.	.	.	.	.	1A\	suc-	.	1A\	-cur-	.	1F/	mi-	.	1f\	ſuc-	.
!	!	!	!	!	!	!	!	!	!	!	!LO:TX:t=P:problem=kreska pseudotaktowa	!	!	!LO:TX:t=P:problem=kreska pseudotaktowa	!	!
.	.	.	.	.	1G/	-cu-	.	2.B-\	.	.	2G/	-ſe-	.	2d\	-cu-	.
=42-	=42-	=42-	=42-	=42-	=42-	=42-	=42-	=42-	=42-	=42-	=42-	=42-	=42-	=42-	=42-	=42-
!LO:TX:t=P:problem=kreska pseudotaktowa	!	!LO:TX:t=P:problem=kreska pseudotaktowa	!	!	!	!	!	!	!	!	!LO:TX:t=P:problem=kreska pseudotaktowa	!	!	!LO:TX:t=P:problem=kreska pseudotaktowa	!	!
00r	.	00r	.	.	.	.	.	.	.	.	1D/	-ris	.	0d\	-re	.
!	!	!	!	!	!	!	!	!LO:TX:t=P:problem=kreska pseudotaktowa	!	!	!	!	!	!	!	!
.	.	.	.	.	.	.	.	4A/	-re	.	.	.	.	.	.	.
!	!	!	!	!	!LO:TX:t=P:problem=kreska pseudotaktowa	!	!	!	!	!	!	!	!	!	!	!
.	.	.	.	.	2F#X/	-re	.	2G/	mi-	.	.	.	.	.	.	.
.	.	.	.	.	2.G/	mi-	.	2A/	-ſe-	.	2r	.	.	.	.	.
!	!	!	!	!	!	!	!	!LO:TX:t=P:problem=kreska pseudotaktowa	!	!	!	!	!	!	!	!
.	.	.	.	.	.	.	.	1G/	-ris	.	1G/	Suc-	.	.	.	.
!	!	!	!	!	!LO:TX:t=P:problem=kreska pseudotaktowa	!	!	!	!	!	!	!	!	!	!	!
.	.	.	.	.	4F#/	.	.	.	.	.	.	.	.	.	.	.
=43-	=43-	=43-	=43-	=43-	=43-	=43-	=43-	=43-	=43-	=43-	=43-	=43-	=43-	=43-	=43-	=43-
.	.	.	.	.	2E/	.	.	.	.	.	.	.	.	2r	.	.
!	!	!	!	!	!	!	!	!	!	!	!LO:TX:t=P:problem=kreska pseudotaktowa	!	!	!	!	!
*	*	*	*	*	*	*	*	*	*ij	*	*	*	*	*	*	*
.	.	.	.	.	1Fny/	.	.	2F/	suc-	.	2F/	-cur-	.	1cny\	mi-	.
.	.	.	.	.	.	.	.	2A/	-cu-	.	1C/	-re	.	.	.	.
!	!	!	!	!	!LO:TX:t=P:problem=kreska pseudotaktowa	!	!	!	!	!	!	!	!	!LO:TX:t=P:problem=kreska pseudotaktowa	!	!
.	.	.	.	.	2E/	.	.	2G/	-re	.	.	.	.	2c/	-ſe-	.
=44-	=44-	=44-	=44-	=44-	=44-	=44-	=44-	=44-	=44-	=44-	=44-	=44-	=44-	=44-	=44-	=44-
!	!	!	!	!	!	!	!	!LO:TX:t=P:problem=kreska pseudotaktowa	!	!	!	!	!	!LO:TX:t=P:problem=kreska pseudotaktowa	!	!
*lig	*	*lig	*	*	*	*	*	*	*	*	*	*	*	*	*	*
1F\	Suc-	1F\	Suc-	.	1F/	.	.	2c\	mi-	.	2r	.	.	1c\	-ris	.
.	.	.	.	.	.	.	.	2A/	.	.	1c\	mi-	.	.	.	.
1E\	.	1E\	.	.	1G/	-se-	.	2B-\	-ſe-	.	.	.	.	1r	.	.
*Xlig	*	*Xlig	*	*	*	*	*	*	*	*	*	*	*	*	*	*
!	!	!	!	!	!	!	!	!LO:TX:t=P:problem=kreska pseudotaktowa	!	!	!LO:TX:t=P:problem=kreska pseudotaktowa	!	!	!	!	!
.	.	.	.	.	.	.	.	1c\	.	.	2c\	-ſe-	.	.	.	.
=45-	=45-	=45-	=45-	=45-	=45-	=45-	=45-	=45-	=45-	=45-	=45-	=45-	=45-	=45-	=45-	=45-
*lig	*	*lig	*	*	*	*	*	*	*	*	*	*	*	*lig	*	*
!	!	!	!	!	!LO:TX:t=P:problem=kreska pseudotaktowa	!	!	!	!	!	!LO:TX:t=P:problem=kreska pseudotaktowa	!	!	!	!	!
1D\	-cur-	1D\	-cur-	.	1F/	-ris	.	.	.	.	1d\	-ris	.	1f\	ſuc-	.
.	.	.	.	.	.	.	.	2B-\	.	.	.	.	.	.	.	.
!	!	!LO:TX:t=P:problem=kreska pseudotaktowa	!	!	!	!	!	!LO:TX:t=P:problem=kreska pseudotaktowa	!	!	!	!	!	!LO:TX:t=P:problem=kreska pseudotaktowa	!	!
1C/	.	1C/	.	.	1r	.	.	2A/	-ris	.	2r	.	.	1e\	.	.
.	.	.	.	.	.	.	.	2r	.	.	2.G/	Suc-	.	.	.	.
*Xlig	*	*Xlig	*	*	*	*	*	*	*Xij	*	*	*	*	*Xlig	*	*
=46-	=46-	=46-	=46-	=46-	=46-	=46-	=46-	=46-	=46-	=46-	=46-	=46-	=46-	=46-	=46-	=46-
!	!	!	!	!	!	!	!	!LO:TX:t=P:problem=kreska pseudotaktowa	!	!	!	!	!	!	!	!
*lig	*	*lig	*	*	*	*	*	*	*	*	*	*	*	*	*	*
1D\	-re	1D\	-re	.	4r	.	.	2E/	ſuc-	.	.	.	.	2d\	-cur-	.
.	.	.	.	.	2F/	no-	.	.	.	.	4F/	.	.	.	.	.
!	!	!	!	!	!	!	!	!	!	!	!	!	!	!LO:TX:t=P:problem=kreska pseudotaktowa	!	!
.	.	.	.	.	.	.	.	2F/	-cu-	.	1F/	-cu-	.	2d\	-re	.
!	!	!	!	!	!LO:TX:t=P:problem=kreska pseudotaktowa	!	!	!	!	!	!	!	!	!	!	!
.	.	.	.	.	4F/	-bis	.	.	.	.	.	.	.	.	.	.
!LO:TX:t=P:problem=kreska pseudotaktowa	!	!	!	!	!	!	!	!LO:TX:t=P:problem=kreska pseudotaktowa	!	!	!	!	!	!	!	!
1C/	.	1C/	.	.	2G/	su-	.	2G/	-re	.	.	.	.	2.e\	mi-	.
*Xlig	*	*Xlig	*	*	*	*	*	*	*	*	*	*	*	*	*	*
!	!	!	!	!	!	!	!	!	!	!	!LO:TX:t=P:problem=kreska pseudotaktowa	!	!	!	!	!
.	.	.	.	.	2A/	-cu-	.	2.A/	mi-	.	2E/	-re	.	.	.	.
.	.	.	.	.	.	.	.	.	.	.	.	.	.	8d\L	.	.
!	!	!	!	!	!	!	!	!	!	!	!	!	!	!LO:TX:t=P:problem=kreska pseudotaktowa	!	!
.	.	.	.	.	.	.	.	.	.	.	.	.	.	8c\J	.	.
=47-	=47-	=47-	=47-	=47-	=47-	=47-	=47-	=47-	=47-	=47-	=47-	=47-	=47-	=47-	=47-	=47-
!	!	!	!	!	!	!	!	!	!	!	!LO:TX:t=P:problem=kreska pseudotaktowa	!	!	!	!	!
*lig	*	*lig	*	*	*	*	*	*	*	*	*	*	*	*	*	*
1BB-X/	mi-	1BB-X/	mi-	.	2B-\	-re	.	.	.	.	1D/	.	.	2.d\	.	.
.	.	.	.	.	.	.	.	4A/	-ſe-	.	.	.	.	.	.	.
!	!	!	!	!	!LO:TX:t=P:problem=kreska pseudotaktowa	!	!	!LO:TX:t=P:problem=kreska pseudotaktowa	!	!	!	!	!	!	!	!
.	.	.	.	.	2d\	suc-	.	1D/	-ris	.	.	.	.	.	.	.
.	.	.	.	.	.	.	.	.	.	.	.	.	.	8c/L	.	.
!	!	!	!	!	!	!	!	!	!	!	!	!	!	!LO:TX:t=P:problem=kreska pseudotaktowa	!	!
.	.	.	.	.	.	.	.	.	.	.	.	.	.	8B-/J	.	.
1AA/	.	1AA/	.	.	2c\	-cur-	.	.	.	.	2E/	mi-	.	2c/	.	.
*Xlig	*	*Xlig	*	*	*	*	*	*	*	*	*	*	*	*	*	*
!	!	!	!	!	!	!	!	!	!	!	!LO:TX:t=P:problem=kreska pseudotaktowa	!	!	!LO:TX:t=P:problem=kreska pseudotaktowa	!	!
.	.	.	.	.	2c\	-re	.	2r	.	.	2F/	-ſe-	.	2A/	.	.
=48-	=48-	=48-	=48-	=48-	=48-	=48-	=48-	=48-	=48-	=48-	=48-	=48-	=48-	=48-	=48-	=48-
*	*	*lig	*	*	*	*	*	*	*	*	*	*	*	*	*	*
1GG/	.	1GG/	-se-	.	2d\	mi-	.	1A\	Al-	Suc-	2D,/	-ris	.	4B-/	-se-	.
.	.	.	.	.	.	.	.	.	.	.	.	.	.	4G/	-ris	.
!	!	!	!	!	!LO:TX:t=P:problem=kreska pseudotaktowa	!	!	!	!	!	!	!	!	!	!	!
.	.	.	.	.	2B-\	-ſe-	.	.	.	.	1d\	al-	suc-	1g\	Al-	Suc-
!	!	!	!	!	!LO:TX:t=P:problem=kreska pseudotaktowa	!	!	!LO:TX:t=P:problem=kreska pseudotaktowa	!	!	!	!	!	!	!	!
2AA/	.	1AA/	.	.	1A\	-ris	.	2A/	.	-cu-	.	.	.	.	.	.
*	*	*Xlig	*	*	*	*	*	*	*	*	*	*	*	*	*	*
!	!	!	!	!	!	!	!	!LO:TX:t=P:problem=kreska pseudotaktowa	!	!	!	!	!	!LO:TX:t=P:problem=kreska pseudotaktowa	!	!
2AA/	-se-	.	.	.	.	.	.	1G/	-le-	-re	4c\	.	.	2f\	-le-	.
!	!	!	!	!	!	!	!	!	!	!	!LO:TX:t=P:problem=kreska pseudotaktowa	!	!	!	!	!
.	.	.	.	.	.	.	.	.	.	.	4B-\	.	.	.	.	.
=49-	=49-	=49-	=49-	=49-	=49-	=49-	=49-	=49-	=49-	=49-	=49-	=49-	=49-	=49-	=49-	=49-
!LO:TX:t=P:problem=kreska pseudotaktowa	!	!LO:TX:t=P:problem=kreska pseudotaktowa	!	!	!	!	!	!	!	!	!	!	!	!	!	!
1AA/	-ris	1AA/	-ris	.	1r	.	.	.	.	.	2A/	.	-cur-	2.e\	.	.
.	.	.	.	.	.	.	.	2.E/	.	mi-	1c\	.	-re	.	.	.
.	.	.	.	.	.	.	.	.	.	.	.	.	.	8d\L	.	-cur-
.	.	.	.	.	.	.	.	.	.	.	.	.	.	8c\J	.	.
!LO:TX:t=P:problem=kreska pseudotaktowa	!	!LO:TX:t=P:problem=kreska pseudotaktowa	!	!	!	!	!	!	!	!	!	!	!	!LO:TX:t=P:problem=kreska pseudotaktowa	!	!
1r	.	1r	.	.	2r	.	.	.	.	.	.	.	.	1d\	-lu-	.
.	.	.	.	.	.	.	.	4F/	-lu-	-ſe-	.	.	.	.	.	.
!	!	!	!	!	!	!	!	!	!	!	!LO:TX:t=P:problem=kreska pseudotaktowa	!	!	!	!	!
!	!	!	!	!	!	!	!	!	!	!	!LO:TX:t=P:#above:problem	!	!	!	!	!
!	!	!	!	!	!	!	!	!LO:TX:t=P:problem=kreska pseudotaktowa	!	!	!LO:N:acc=#	!	!	!	!	!
.	.	.	.	.	1G/	Al-	suc-	1G/	-ia	-ris	2Bn\	-le-	.	.	.	.
=50-	=50-	=50-	=50-	=50-	=50-	=50-	=50-	=50-	=50-	=50-	=50-	=50-	=50-	=50-	=50-	=50-
1C/	suc-	1C/	al-	suc-	.	.	.	.	.	.	1.c\	-lu-	mi-	2e\,	-ia	-re
*	*	*	*	*	*lig	*	*	*	*	*	*	*	*	*	*	*
*lig	*	*lig	*	*	*	*	*	*	*ij	*ij	*	*	*	*	*ij	*
.	.	.	.	.	1G/	-le-	-cur-	2r	.	.	.	.	.	1g\	Al-	suc-
!	!	!	!	!	!	!	!	!LO:TX:t=P:problem=kreska pseudotaktowa	!	!	!	!	!	!	!	!
1GG/	-cur-	1GG/	-le-	-cur-	.	.	.	2A/	Al-	mi-	.	.	.	.	.	.
!	!	!	!	!	!	!	!	!	!	!	!LO:TX:t=P:problem=kreska pseudotaktowa	!	!	!LO:TX:t=P:problem=kreska pseudotaktowa	!	!
.	.	.	.	.	1d\	.	.	2A/	-le-	-ſe-	2B-y\	.	-ſe-	2d\	.	-cur-
*	*	*	*	*	*Xlig	*	*	*	*	*	*	*	*	*	*	*
=51-	=51-	=51-	=51-	=51-	=51-	=51-	=51-	=51-	=51-	=51-	=51-	=51-	=51-	=51-	=51-	=51-
!	!	!	!	!	!	!	!	!LO:TX:t=P:problem=kreska pseudotaktowa	!	!	!LO:TX:t=P:problem=kreska pseudotaktowa	!	!	!	!	!
1AA/	.	1AA/	.	.	.	.	.	2A/	-lu-	.	1A\	-ia	-ris	2f\	.	.
*Xlig	*	*Xlig	*	*	*	*	*	*	*	*	*	*	*	*	*	*
!	!	!	!	!	!	!	!	!LO:TX:t=P:problem=kreska pseudotaktowa	!	!	!	!	!	!	!	!
.	.	.	.	.	4c#X\	.	.	1E/	-ia	-ris	.	.	.	4e\	.	.
!	!	!	!	!	!LO:TX:t=P:problem=kreska pseudotaktowa	!	!	!	!	!	!	!	!	!LO:TX:t=P:problem=kreska pseudotaktowa	!	!
.	.	.	.	.	4B-\	.	-re	.	.	.	.	.	.	4d\	.	.
0AA/	.	0AA/	-lu-	.	2c#\	.	.	.	.	.	2r	.	.	2e\	.	-re
!	!	!	!	!	!	!	!	!	!	!	!	!	!	!LO:TX:t=P:problem=kreska pseudotaktowa	!	!
*	*	*	*	*	*	*	*	*	*Xij	*Xij	*	*ij	*	*	*	*
!	!	!	!	!	!	!	!	!LO:TX:t=P:problem=kreska pseudotaktowa	!	!	!LO:TX:t=P:problem=kreska pseudotaktowa	!	!	!	!	!
.	.	.	.	.	1d\	.	mi-	1r	.	.	2A/	al-	suc-	2f\	.	.
=52-	=52-	=52-	=52-	=52-	=52-	=52-	=52-	=52-	=52-	=52-	=52-	=52-	=52-	=52-	=52-	=52-
.	.	.	.	.	.	.	.	.	.	.	2A/	-le-	-cur-	2e\	-le-	mi-
!	!	!	!	!	!LO:TX:t=P:problem=kreska pseudotaktowa	!	!	!	!	!	!LO:TX:t=P:problem=kreska pseudotaktowa	!	!	!	!	!
.	.	.	.	.	2c#X\	-lu-	-se-	2.A/	.	suc-	2A/	-lu-	.	2e\	-lu-	-ſe-
!LO:TX:t=P:problem=kreska pseudotaktowa	!	!LO:TX:t=P:problem=kreska pseudotaktowa	!	!	!LO:TX:t=P:problem=kreska pseudotaktowa	!	!	!	!	!	!	!	!	!LO:TX:t=P:problem=kreska pseudotaktowa	!	!
1AA/	-re	1AA/	-ia	-re,	1d\	-ia	-ris	.	.	.	1.D/	-ia	-re	1f#X\	-ia	-ris
*	*	*	*	*	*	*	*	*	*	*	*	*	*	*	*Xij	*
!	!	!	!	!	!	!	!	!LO:TX:t=P:problem=kreska pseudotaktowa	!	!	!	!	!	!	!	!
.	.	.	.	.	.	.	.	4G/	.	.	.	.	.	.	.	.
.	.	.	.	.	.	.	.	2F/	Al-	-cur-	.	.	.	.	.	.
=53-	=53-	=53-	=53-	=53-	=53-	=53-	=53-	=53-	=53-	=53-	=53-	=53-	=53-	=53-	=53-	=53-
!LO:TX:t=P:problem=kreska pseudotaktowa	!	!LO:TX:t=P:problem=kreska pseudotaktowa	!	!	!	!	!	!LO:TX:t=P:problem=kreska pseudotaktowa	!	!	!	!	!	!LO:TX:t=P:problem=kreska pseudotaktowa	!	!
!LO:TX:t=1.	!	!	!	!	!	!	!	!	!	!	!	!	!	!	!	!
1r	.	1r	.	.	2r	.	.	2E/	.	-re	.	.	.	1r	.	.
*2\right	*	*2\right	*	*	*	*ij	*	*	*	*	*	*	*ij	*	*	*
!	!	!	!	!	!LO:TX:t=P:problem=kreska pseudotaktowa	!	!	!	!	!	!	!	!	!	!	!
.	.	.	.	.	2A/	Al-	mi-	2D/	.	mi-	2.A/	al-	suc-	.	.	.
!	!	!	!	!	!	!	!	!LO:TX:t=P:problem=kreska pseudotaktowa	!	!	!	!	!	!	!	!
2.A\	suc-	2.A\	al-	suc-	2A/	-le-	-se-	2C/	.	.	.	.	.	2.a\	Al-	suc-
.	.	.	.	.	.	.	.	.	.	.	4B-\	.	.	.	.	.
.	.	.	.	.	2A/	-lu-	-ris.	2D/	.	.	4c\	.	.	.	.	.
*	*	*	*	*	*	*	*	*	*	*	*	*	*	*custos:f	*	*
!	!	!	!	!	!	!	!	!	!	!	!LO:TX:t=P:problem=kreska pseudotaktowa	!	!	!	!	!
!LO:TX:t=P:problem=kreska pseudotaktowa	!	!LO:TX:t=P:problem=kreska pseudotaktowa	!	!	!	!	!	!	!	!	!	!	!	!LO:TX:t=P:problem=kreska pseudotaktowa	!	!
!LO:TX:t=P:problem=all\right&colon; global	!	!LO:TX:t=P:problem=all\right&colon; global	!	!	!	!	!	!	!	!	!	!	!	!	!	!
4G\	.	4G\	-le-	.	.	.	.	.	.	.	4A\	.	.	4g\	.	.
=54-	=54-	=54-	=54-	=54-	=54-	=54-	=54-	=54-	=54-	=54-	=54-	=54-	=54-	=54-	=54-	=54-
!	!	!	!	!	!	!	!	!LO:TX:t=P:problem=kreska pseudotaktowa	!	!	!	!	!	!	!	!
2F\	-cur-	2F\	.	-cur-	[0A\l	-ia	.	2E/	.	.	2d\	-le-	-cu-	2fny\	.	-cur-
!LO:TX:t=P:problem=kreska pseudotaktowa	!	!LO:TX:t=P:problem=kreska pseudotaktowa	!	!	!	!	!	!	!	!	!LO:TX:t=P:problem=kreska pseudotaktowa	!	!	!LO:TX:t=P:problem=kreska pseudotaktowa	!	!
2E\	.	2E\	.	-re	.	.	.	2F/	-le-	.	2c#X\	.	re	2e\	-le-	-re
*	*	*	*	*	*	*Xij	*	*	*	*	*	*	*Xij	*	*	*
2D/	-re	2D/	.	.	.	.	.	2F/	-lu-	-se-	1.d\	.	mi-	4d\	.	mi-
.	.	.	.	.	.	.	.	.	.	.	.	.	.	2f\	-lu-	-ſe-
!LO:TX:t=P:problem=kreska pseudotaktowa	!	!LO:TX:t=P:problem=kreska pseudotaktowa	!	!	!	!	!	!	!	!	!	!	!	!	!	!
2AA/	.	2AA/	-lu-	mi-	.	.	.	[1E\l	-ia/	-ris.	.	.	.	.	.	.
.	.	.	.	.	.	.	.	.	.	.	.	.	.	8e\L	.	.
.	.	.	.	.	.	.	.	.	.	.	.	.	.	8d\J	.	.
=55-	=55-	=55-	=55-	=55-	=55-	=55-	=55-	=55-	=55-	=55-	=55-	=55-	=55-	=55-	=55-	=55-
2.D/	mi-	2D/	-ia	-se-	0A\]	.	.	.	.	.	.	.	.	0e\	-ia	-ris
.	.	2D/	.	-ris.	.	.	.	1.E/]	.	.	4c#y\	-lu-	-ſe-	.	.	.
4D/	-ſe-	.	.	.	.	.	.	.	.	.	4B-\	.	.	.	.	.
!LO:N:vis=0	!	!LO:N:vis=0	!	!	!	!	!	!	!	!	!LO:N:vis=0	!	!	!	!	!
1AA/	-ris.	1AA/;	.	.	.	.	.	.	.	.	1c#y\	-ia	-ris.	.	.	.
*	*	*	*	*	*	*	*	*	*	*	*	*Xij	*	*	*	*
==	==	==	==	==	==	==	==	==	==	==	==	==	==	==	==	==
*-	*-	*-	*-	*-	*-	*-	*-	*-	*-	*-	*-	*-	*-	*-	*-	*-
!!!RDF**kern: > = above
!!!RDF**kern: < = below
!!!RDF**kern: l = terminal long
!!!system-decoration: [s1,s2,s3,s4,s5,s6]
!!!EED: Andrzej Borzym
!!!EEV: 2021-03-13
!!!ENC: Andrzej Gręziak
!!!END: 2021-02-07
!!!YEC: Copyright 2022 Narodowy Instytut Fryderyka Chopina (https://polishscores.org)
!!!YEM: License CC-BY-4.0 (https://creativecommons.org/licenses/by/4.0)
